app/assets/SVG/shop_order.svg

<?xml version="1.0" encoding="UTF-8"?>
<svg width="24px" height="24px" viewBox="0 0 24 24" version="1.1" xmlns="http://www.w3.org/2000/svg" xmlns:xlink="http://www.w3.org/1999/xlink">
    <!-- Generator: Sketch 46.1 (44463) - http://www.bohemiancoding.com/sketch -->
    <title>shop_order</title>
    <desc>Created with Sketch.</desc>
    <defs></defs>
    <g id="01_main" stroke="none" stroke-width="1" fill="none" fill-rule="evenodd">
        <g id="05_mine_0803-copy-2" transform="translate(-25.000000, -501.000000)" fill-rule="nonzero" fill="#00BCD4">
            <g id="order-" transform="translate(25.000000, 501.000000)">
                <path d="M19.7265576,20.7538634 L7.63300107,20.7538634 L7.63300107,19.5048132 L17.3086639,19.5048132 C17.9749595,19.5048132 18.5189581,18.9442342 18.5189581,18.2558772 L18.5189581,5.76532955 L19.7265576,5.76532955 L19.7265576,20.7538634 Z M6.97782752,17.0068041 C6.64469113,17.0068041 6.37280598,16.7265375 6.37280598,16.382279 C6.37280598,16.0382718 6.64469113,15.7577311 6.97782752,15.7577311 L15.4935993,15.7577311 C15.8264844,15.7577311 16.0986208,16.0382718 16.0986208,16.382279 C16.0986208,16.7265147 15.8264844,17.0068041 15.4935993,17.0068041 L6.97782752,17.0068041 Z M6.97782752,12.0105349 L15.4935993,12.0105349 C15.8264844,12.0105349 16.0986208,12.2910756 16.0986208,12.6350599 C16.0986208,12.9793184 15.8264844,13.2596079 15.4935993,13.2596079 L6.97782752,13.2596079 C6.64469113,13.2596079 6.37280598,12.9793412 6.37280598,12.6350599 C6.37280598,12.2910756 6.64469113,12.0105349 6.97782752,12.0105349 L6.97782752,12.0105349 Z M6.97782752,8.26347562 L15.4935993,8.26347562 C15.8264844,8.26347562 16.0986208,8.54401633 16.0986208,8.88800071 C16.0986208,9.23225916 15.8264844,9.51252581 15.4935993,9.51252581 L6.97782752,9.51252581 C6.64469113,9.51252581 6.37280598,9.23225916 6.37280598,8.88800071 C6.37280598,8.54401633 6.64469113,8.26347562 6.97782752,8.26347562 L6.97782752,8.26347562 Z M10.6054902,4.51641638 L15.4935993,4.51641638 C15.8264844,4.51641638 16.0986208,4.79695709 16.0986208,5.14094148 C16.0986208,5.48506289 15.8264844,5.76532955 15.4935993,5.76532955 L10.6054902,5.76532955 C10.2726507,5.76532955 10.0007656,5.48506289 10.0007656,5.14094148 C10.0007656,4.79695709 10.2726507,4.51641638 10.6054902,4.51641638 L10.6054902,4.51641638 Z M19.7265576,4.51641638 L18.5189581,4.51641638 L18.5189581,3.26734335 C18.5189581,2.57910052 17.9749595,2.01827032 17.3086639,2.01827032 L5.21540427,2.01827032 C4.54641378,2.01827032 4.00508714,2.57910052 4.00508714,3.26734335 L4.00508714,18.2558772 C4.00508714,18.9442342 4.54641378,19.5048132 5.21540427,19.5048132 L6.42270679,19.5048132 L6.42270679,20.7538634 C6.42270679,21.4423574 6.9667283,22.0032105 7.63300107,22.0032105 L19.7265576,22.0032105 C20.395274,22.0032105 20.9366006,21.4423574 20.9366006,20.7538634 L20.9366006,5.76532955 C20.9366006,5.07722375 20.395274,4.51641638 19.7265576,4.51641638 L19.7265576,4.51641638 Z" id="Shape"></path>
            </g>
        </g>
    </g>
</svg>

<svg width="24" height="24" viewBox="0 0 24 24" xmlns="http://www.w3.org/2000/svg"><title>shop_order copy</title><path d="M19.727 20.754H7.633v-1.25h9.676c.666 0 1.21-.56 1.21-1.248V5.766h1.208v14.988zm-12.75-3.747a.616.616 0 0 1-.604-.625c0-.344.272-.624.605-.624h8.516c.332 0 .605.28.605.624a.616.616 0 0 1-.605.625H6.978zm0-4.996h8.517c.332 0 .605.28.605.624a.616.616 0 0 1-.605.625H6.978a.616.616 0 0 1-.605-.625c0-.344.272-.624.605-.624zm0-3.748h8.517c.332 0 .605.281.605.625a.616.616 0 0 1-.605.625H6.978a.616.616 0 0 1-.605-.625c0-.344.272-.625.605-.625zm3.628-3.747h4.889c.332 0 .605.281.605.625a.616.616 0 0 1-.605.624h-4.889a.616.616 0 0 1-.604-.624c0-.344.272-.625.604-.625zm9.122 0h-1.208V3.267c0-.688-.544-1.249-1.21-1.249H5.215c-.669 0-1.21.561-1.21 1.25v14.988c0 .688.541 1.249 1.21 1.249h1.208v1.249c0 .688.544 1.25 1.21 1.25h12.094c.668 0 1.21-.562 1.21-1.25V5.765c0-.688-.542-1.249-1.21-1.249z" fill-rule="nonzero" fill="#00BCD4"/></svg>
